X: 30377
T: Old Rafferty's Apple
R: jig
M: 6/8
K: Adorian
g|:edB AGA|~B3 AGE|~G3 GAB|dB/c/d e2g|
edB AGA|~B3 AGE|~G3 gdB|ABA A3:|
|:eag ~e2d|eAA BGE|~G3 ~g2d|edB BAA|
[1 eag ged|Bde ~G2A|BAB dBG|ABA A3:|
[2 ede a2b|age deg|~G3 AB/c/d|e3 e2g||

